components/brave_wallet_ui/page/screens/swap/assets/lp-icons/goosefx.svg

<svg width="56" height="59" viewBox="0 0 56 59" fill="none" xmlns="http://www.w3.org/2000/svg">
<path fill-rule="evenodd" clip-rule="evenodd" d="M37.234 0.283252C39.3723 0.625607 40.8831 1.07641 41.7663 1.63567C42.6496 2.19493 43.5882 3.295 44.5821 4.93587C44.0461 5.3969 43.5794 5.66367 43.1821 5.73617C42.7847 5.80867 42.1255 5.74732 41.2046 5.55213L40.1067 5.03613C39.0482 4.53863 37.7998 5.01264 37.3034 6.10049C36.8743 7.04095 37.2632 8.16332 38.172 8.60737C38.2493 8.64513 38.329 8.67721 38.4107 8.70337L39.8754 9.17272C40.2891 9.51104 40.4725 9.9861 40.4256 10.5979C40.3786 11.2098 40.1044 11.8046 39.603 12.3826L40.3965 14.6351C39.4396 14.854 38.2898 14.9185 36.947 14.8286C34.9328 14.6938 33.9477 14.0581 33.9314 13.9623C33.9228 13.9115 33.2684 13.5357 31.9682 12.8349C30.6291 12.475 29.2246 12.2837 27.777 12.2837C18.5725 12.2837 11.1108 20.0191 11.1108 29.5612C11.1108 39.1033 18.5725 46.8387 27.777 46.8387C33.9535 46.8387 39.3453 43.3556 42.2243 38.1808L35.313 38.1805C34.0826 38.1805 32.9992 37.3415 32.6521 36.1199L30.8287 29.7017C30.7423 29.3976 30.9105 29.0785 31.2045 28.9891C31.2553 28.9737 31.308 28.9658 31.3609 28.9658H53.4171C54.0672 28.9658 54.6411 29.405 54.8315 30.0483C55.1343 31.0713 55.2856 32.1732 55.2856 33.3537C55.2856 34.681 55.0336 36.0082 54.5296 37.3354C51.2576 49.4624 40.5193 58.3571 27.777 58.3571C12.4362 58.3571 0 45.4647 0 29.5612C0 16.6392 8.21034 5.70514 19.518 2.0596C19.5689 2.00153 19.6227 1.95817 19.68 1.93007C21.1622 1.20219 23.4077 0.847465 25.7085 0.464236L26.0088 0.414055C26.3594 0.355245 26.7107 0.29537 27.0599 0.233016C28.8895 -0.0936006 32.2808 -0.0768555 37.234 0.283252ZM45.3657 5.95253C46.1407 6.57921 46.6402 7.10748 46.8642 7.53735C47.0808 7.95288 47.2922 8.65845 47.4985 9.65404L47.5198 9.75807L52.9538 14.837C53.1335 15.0049 53.2548 15.2287 53.3 15.4738L53.3085 15.5266L53.3953 16.1553C53.4178 16.3185 53.3311 16.4755 53.187 16.5395L53.1593 16.5504L52.8819 16.6461L52.7183 16.6236C47.3406 15.8831 44.0669 15.2528 42.8972 14.7328C41.7863 14.2389 41.611 13.0817 42.371 11.2614C42.4622 11.0432 42.4713 10.7983 42.3978 10.5743L42.3808 10.5267L41.8582 9.1748C41.8184 9.07183 41.7616 8.97694 41.6906 8.89428L41.6539 8.85399L40.546 7.7064C40.2147 7.6369 39.8484 7.74503 39.5171 7.67553C39.4408 7.65953 39.2613 7.59878 38.9786 7.49328C38.9597 7.48625 38.9412 7.47831 38.9231 7.46949C38.6013 7.31298 38.4631 6.91617 38.6143 6.5832C38.7924 6.19128 39.2048 5.97447 39.6157 6.05683C39.9299 6.11981 40.1557 6.17495 40.2931 6.22223C40.5177 6.29948 40.8185 6.46319 41.1958 6.71338C42.3271 6.9442 43.1575 7.0113 43.687 6.91468C44.2165 6.81806 44.7761 6.49735 45.3657 5.95253Z" fill="url(#paint0_linear_113_57)"/>
<defs>
<linearGradient id="paint0_linear_113_57" x1="7.678" y1="11.5177" x2="46.8881" y2="49.0413" gradientUnits="userSpaceOnUse">
<stop stop-color="#5750FF"/>
<stop offset="1" stop-color="#E659FF"/>
</linearGradient>
</defs>
</svg>

<svg xmlns="http://www.w3.org/2000/svg" width="56" height="59" fill="none"><path fill="url(#a)" fill-rule="evenodd" d="M37.234.283c2.138.343 3.65.793 4.532 1.353.884.559 1.822 1.659 2.816 3.3-.536.46-1.003.728-1.4.8-.397.073-1.056.011-1.977-.184l-1.098-.516C39.048 4.54 37.8 5.013 37.303 6.1c-.429.941-.04 2.063.869 2.507.077.038.157.07.239.096l1.464.47c.414.338.597.813.55 1.425-.046.612-.32 1.207-.822 1.785l.794 2.252c-.957.219-2.107.284-3.45.194-2.014-.135-3-.77-3.016-.867-.008-.05-.663-.426-1.963-1.127a16.124 16.124 0 0 0-4.191-.551c-9.204 0-16.666 7.735-16.666 17.277 0 9.542 7.462 17.278 16.666 17.278 6.176 0 11.568-3.483 14.447-8.658h-6.911c-1.23 0-2.314-.84-2.66-2.061l-1.824-6.418a.577.577 0 0 1 .375-.713.54.54 0 0 1 .157-.023h22.056c.65 0 1.224.439 1.414 1.082.303 1.023.455 2.125.455 3.306 0 1.327-.252 2.654-.756 3.981-3.272 12.127-14.01 21.022-26.753 21.022C12.437 58.357 0 45.465 0 29.561 0 16.64 8.21 5.705 19.518 2.06a.527.527 0 0 1 .162-.13c1.482-.728 3.728-1.083 6.029-1.466l.3-.05c.35-.059.702-.119 1.05-.181 1.83-.327 5.222-.31 10.175.05Zm8.132 5.67c.775.626 1.274 1.154 1.498 1.584.217.416.428 1.121.635 2.117l.02.104 5.435 5.079c.18.168.3.392.346.637l.009.053.086.628a.365.365 0 0 1-.208.384l-.028.011-.277.096-.164-.022c-5.377-.74-8.651-1.371-9.82-1.891-1.112-.494-1.287-1.651-.527-3.472a.987.987 0 0 0 .027-.687l-.017-.047-.523-1.352a.964.964 0 0 0-.167-.28l-.037-.041-1.108-1.148c-.331-.07-.698.039-1.029-.03a5.287 5.287 0 0 1-.594-.207.676.676 0 0 1-.309-.886.907.907 0 0 1 1.002-.526c.314.063.54.118.677.165.225.077.526.241.903.491 1.131.231 1.962.298 2.491.202.53-.097 1.09-.418 1.679-.962Z" clip-rule="evenodd"/><defs><linearGradient id="a" x1="7.678" x2="46.888" y1="11.518" y2="49.041" gradientUnits="userSpaceOnUse"><stop stop-color="#5750FF"/><stop offset="1" stop-color="#E659FF"/></linearGradient></defs></svg>
